apps/teka/src/routes/apps/convertir-binario-decimal-hexadecimal/i.svg

<!--
asi:Redes Locales
title:Convertidor binario &hArr; hexadecimal &hArr; decimal
body:Convierte entre binario, decimal, y hexadecimal.
-->
<svg
    width="25"
    height="25"
    viewBox="0 0 32 26"
    xmlns="http://www.w3.org/2000/svg"
>
    <path
        d="M3 17.333V23H10.667V26H0V17.333H3ZM32 17.333V26H21.333V23H29V17.333H32ZM10.667 0V3H3V8.66699H0V0H10.667ZM32 0V8.66699H29V3H21.333V0H32Z"
        fill="currentColor"
    />
    <path
        d="M13.2144 7.1596V18.8396H10.7449V9.50358H10.6765L8.0017 11.1803V8.9903L10.8932 7.1596H13.2144Z"
        fill="currentColor"
    />
    <path
        d="M19.2852 19.0962C18.3042 19.0924 17.4602 18.851 16.753 18.3719C16.0496 17.8929 15.5078 17.199 15.1276 16.2903C14.7512 15.3816 14.5649 14.2885 14.5687 13.011C14.5687 11.7373 14.7569 10.6518 15.1333 9.75452C15.5135 8.85723 16.0553 8.17475 16.7587 7.7071C17.4659 7.23564 18.308 6.99991 19.2852 6.99991C20.2623 6.99991 21.1026 7.23564 21.8059 7.7071C22.5131 8.17856 23.0568 8.86293 23.437 9.76022C23.8172 10.6537 24.0055 11.7373 24.0016 13.011C24.0016 14.2923 23.8115 15.3873 23.4313 16.296C23.0549 17.2047 22.515 17.8986 21.8116 18.3776C21.1083 18.8567 20.2661 19.0962 19.2852 19.0962ZM19.2852 17.0488C19.9543 17.0488 20.4885 16.7123 20.8877 16.0394C21.287 15.3664 21.4847 14.3569 21.4809 13.011C21.4809 12.1251 21.3896 11.3875 21.2071 10.7982C21.0284 10.2089 20.7737 9.76593 20.4429 9.46936C20.1159 9.1728 19.73 9.02452 19.2852 9.02452C18.6198 9.02452 18.0875 9.3572 17.6883 10.0226C17.2891 10.6879 17.0876 11.6841 17.0838 13.011C17.0838 13.9083 17.1731 14.6573 17.3518 15.258C17.5343 15.855 17.7909 16.3036 18.1217 16.604C18.4525 16.9005 18.8403 17.0488 19.2852 17.0488Z"
        fill="currentColor"
    />
</svg>

<!--
asi:Redes Locales
title:Convertidor binario &hArr; hexadecimal &hArr; decimal
body:Convierte entre binario, decimal, y hexadecimal.
-->
<svg xmlns="http://www.w3.org/2000/svg" width="25" height="25" viewBox="0 0 32 26"><path fill="currentColor" d="M3 17.333V23h7.667v3H0v-8.667zm29 0V26H21.333v-3H29v-5.667zM10.667 0v3H3v5.667H0V0zM32 0v8.667h-3V3h-7.667V0zM13.214 7.16v11.68h-2.47V9.504h-.067L8.002 11.18V8.99l2.891-1.83zm6.071 11.936q-1.47-.006-2.532-.724-1.055-.72-1.625-2.082-.565-1.362-.56-3.279 0-1.912.565-3.256.57-1.346 1.626-2.048Q17.819 7 19.285 7t2.52.707q1.062.708 1.632 2.053.57 1.34.565 3.251 0 1.921-.57 3.285-.566 1.364-1.62 2.082-1.056.718-2.527.718m0-2.047q1.004 0 1.603-1.01t.593-3.028q0-1.328-.274-2.213-.268-.884-.764-1.329a1.67 1.67 0 0 0-1.158-.444q-.998 0-1.597.998-.598.997-.604 2.988 0 1.346.268 2.247.273.896.77 1.346.495.445 1.163.445"/></svg>
